exports/employment-in-the-coal-industry-in-the-united-kingdom-1873-2016_v2_850x600.svg

<svg xmlns="http://www.w3.org/2000/svg" version="1.1" style="background-color:#fff;-webkit-font-smoothing:antialiased" width="850" height="600" font-family="'Helvetica Neue',Helvetica,Arial,sans-serif" font-size="18" text-rendering="optimizeLegibility"><g class="ChartTab"><g class="HeaderView"><g opacity=".8" transform="matrix(.27 0 0 .27 778 15)"><a xmlns:xlink="http://www.w3.org/1999/xlink" xlink:href="https://ourworldindata.org" target="_blank"><g><path fill="#1B2543" d="M0 0h211.2v130.1H0z"/><path fill="#E63912" d="M0 112.2h211.2v17.9H0z"/><g><path fill="none" d="M1.2 12.3h210.2v99.2H1.2z"/><path fill="#FFF" d="M37.8 32.2c0 12.7-7.7 19.4-17.1 19.4-9.7 0-16.6-7.5-16.6-18.7 0-11.7 7.3-19.3 17.1-19.3 10.1.1 16.6 7.7 16.6 18.6zm-28.6.6c0 7.9 4.3 14.9 11.8 14.9 7.5 0 11.8-6.9 11.8-15.3 0-7.3-3.8-14.9-11.8-14.9-7.9 0-11.8 7.3-11.8 15.3zM62.7 43.8c0 2.7.1 5.1.2 7.2h-4.3l-.3-4.3h-.1c-1.3 2.1-4 4.9-8.8 4.9-4.2 0-9.1-2.3-9.1-11.6V24.6h4.8v14.6c0 5 1.5 8.4 5.9 8.4 3.2 0 5.5-2.2 6.3-4.4.3-.7.4-1.6.4-2.5V24.6h4.8v19.2zM67.3 32.8c0-3.1-.1-5.8-.2-8.2h4.2l.2 5.2h.2c1.2-3.5 4.1-5.8 7.3-5.8.5 0 .9.1 1.4.2v4.5c-.5-.1-1-.2-1.6-.2-3.4 0-5.8 2.6-6.5 6.2-.1.7-.2 1.4-.2 2.2V51h-4.8V32.8zM95.4 51L86 14.2h5l4.4 18.6c1.1 4.6 2.1 9.2 2.7 12.7h.1c.6-3.7 1.8-8 3-12.8l4.9-18.5h5l4.5 18.7c1 4.4 2 8.7 2.6 12.6h.1c.8-4 1.8-8.1 3-12.7l4.9-18.5h4.9L120.6 51h-5L111 31.9c-1.1-4.7-1.9-8.3-2.4-12h-.1c-.7 3.7-1.5 7.3-2.8 12L100.4 51h-5zM154.9 37.6c0 9.8-6.8 14-13.2 14-7.2 0-12.7-5.2-12.7-13.6 0-8.8 5.8-14 13.1-14 7.7 0 12.8 5.5 12.8 13.6zm-21 .3c0 5.8 3.3 10.1 8 10.1 4.6 0 8-4.3 8-10.3 0-4.5-2.2-10.1-7.9-10.1s-8.1 5.2-8.1 10.3zM158.2 32.8c0-3.1-.1-5.8-.2-8.2h4.2l.2 5.2h.2c1.2-3.5 4.1-5.8 7.3-5.8.5 0 .9.1 1.4.2v4.5c-.5-.1-1-.2-1.6-.2-3.4 0-5.8 2.6-6.5 6.2-.1.7-.2 1.4-.2 2.2V51h-4.8V32.8zM173.5 12.3h4.8V51h-4.8V12.3zM206.5 12.3v31.9c0 2.3.1 5 .2 6.8h-4.3l-.2-4.6h-.2c-1.5 2.9-4.7 5.2-9 5.2-6.4 0-11.3-5.4-11.3-13.4-.1-8.8 5.4-14.2 11.9-14.2 4 0 6.8 1.9 8 4h.1V12.3h4.8zm-4.8 23.1c0-.6-.1-1.4-.2-2a7 7 0 00-6.9-5.6c-5 0-7.9 4.4-7.9 10.2 0 5.3 2.6 9.8 7.8 9.8 3.2 0 6.2-2.1 7.1-5.7.2-.7.2-1.3.2-2.1v-4.6zM42.8 64c.1 1.6-1.1 2.9-3.1 2.9-1.7 0-2.9-1.3-2.9-2.9 0-1.7 1.3-3 3-3 1.9 0 3 1.3 3 3zm-5.4 33.8V71.4h4.8v26.4h-4.8zM47.5 78.6c0-2.7-.1-5-.2-7.1h4.3l.3 4.4h.1c1.3-2.5 4.4-5 8.8-5 3.7 0 9.4 2.2 9.4 11.2v15.8h-4.8V82.6c0-4.3-1.6-7.8-6.1-7.8-3.2 0-5.6 2.2-6.5 4.9-.2.6-.3 1.4-.3 2.2v15.9h-4.8V78.6zM84 61.6c2.9-.4 6.3-.8 10.1-.8 6.8 0 11.7 1.6 14.9 4.6 3.3 3 5.2 7.3 5.2 13.2 0 6-1.9 10.9-5.3 14.3-3.4 3.4-9.1 5.3-16.3 5.3-3.4 0-6.2-.2-8.6-.4V61.6zm4.8 32.5c1.2.2 3 .3 4.8.3 10.2 0 15.7-5.7 15.7-15.6.1-8.7-4.9-14.2-14.9-14.2-2.5 0-4.3.2-5.6.5v29zM132.1 97.8l-.4-3.3h-.2a9.79 9.79 0 01-8.1 3.9c-5.4 0-8.1-3.8-8.1-7.6 0-6.4 5.7-9.9 15.9-9.8v-.5c0-2.2-.6-6.1-6-6.1-2.5 0-5 .8-6.9 2l-1.1-3.2c2.2-1.4 5.4-2.3 8.7-2.3 8.1 0 10.1 5.5 10.1 10.8v9.9c0 2.3.1 4.5.4 6.3h-4.3zm-.7-13.4c-5.3-.1-11.2.8-11.2 5.9 0 3.1 2.1 4.6 4.5 4.6 3.4 0 5.6-2.2 6.4-4.4.2-.5.3-1 .3-1.5v-4.6zM146.6 63.9v7.6h6.9v3.7h-6.9v14.2c0 3.3.9 5.1 3.6 5.1 1.3 0 2.2-.2 2.8-.3l.2 3.6c-.9.4-2.4.7-4.3.7-2.2 0-4-.7-5.2-2-1.4-1.4-1.9-3.8-1.9-6.9V75.1h-4.1v-3.7h4.1v-6.3l4.8-1.2zM171.4 97.8l-.4-3.3h-.2a9.79 9.79 0 01-8.1 3.9c-5.4 0-8.1-3.8-8.1-7.6 0-6.4 5.7-9.9 15.9-9.8v-.5c0-2.2-.6-6.1-6-6.1-2.5 0-5 .8-6.9 2l-1.1-3.2c2.2-1.4 5.4-2.3 8.7-2.3 8.1 0 10.1 5.5 10.1 10.8v9.9c0 2.3.1 4.5.4 6.3h-4.3zm-.7-13.4c-5.3-.1-11.2.8-11.2 5.9 0 3.1 2.1 4.6 4.5 4.6 3.4 0 5.6-2.2 6.4-4.4.2-.5.3-1 .3-1.5v-4.6z"/></g></g></a></g><a href="https://ourworldindata.org/grapher/employment-in-the-coal-industry-in-the-united-kingdom" target="_blank"><text font-size="25.2" x="15" y="35.2" fill="#555"><tspan x="15" y="35.16">Employment in the coal industry in the United Kingdom</tspan></text></a><text font-size="14.4" x="15" y="53.7" fill="#666"><tspan x="15" y="53.72">Total number of individuals employed in the coal industry in the United Kingdom. Figures include those employed as</tspan><tspan x="15" y="69.56">contractors by the coal industry.</tspan></text></g><g class="LineChart"><defs><clipPath id="a"><path d="M69.45 0h830v928.8h-830z"/></clipPath></defs><g class="AxisBoxView"><g class="HorizontalAxis" fill="#666" text-anchor="middle" font-size="16.2"><text x="79.5" y="556.5">1873</text><text x="196.5" y="556.5">1900</text><text x="283.2" y="556.5">1920</text><text x="369.9" y="556.5">1940</text><text x="456.5" y="556.5">1960</text><text x="543.2" y="556.5">1980</text><text x="629.9" y="556.5">2000</text><text x="703.6" y="556.5">2017</text></g><g class="VerticalAxis" fill="#666" dominant-baseline="middle" text-anchor="end" font-size="16.2"><text x="74.45" y="535.3">0</text><text x="74.45" y="460.9">200,000</text><text x="74.45" y="386.5">400,000</text><text x="74.45" y="312">600,000</text><text x="74.45" y="237.6">800,000</text><text x="74.45" y="163.2">1 million</text></g><g class="AxisGridLines"><path stroke="#ccc" d="M79.45 535.3h624.16"/><path stroke="#ddd" stroke-dasharray="3,2" d="M79.45 460.9h624.16M79.45 386.5h624.16M79.45 312h624.16M79.45 237.6h624.16M79.45 163.2h624.16"/></g></g><g clip-path="url(#a)"><g class="HeightedLegend clickable"><g class="legendMark"><text font-size="13.5" x="708.6" y="539.1" fill="#3360a9"><tspan x="708.61" y="539.15">United Kingdom</tspan></text></g></g><g class="Lines"><g class="key-United-Kingdom_0"><path stroke="#3360a9" stroke-linecap="round" d="M80 362l43-26 43-58 44-81 43-74 4 26 5 38 4-17 4-8 5 5 4-54 4-21 9 40 4-25 5-4 4 31 9 33 4 28 4-4 5 6 4 25 4 17 5 11h4l4 5 5 1 4-8 4-1 5 5 4 6 4 20 5-5 4 1 4-1 5 1 4 3 4-5 5-5 4 2 4 8h5l4-7h4l5 2 4 1 4 1 5-3 4 4 4 13 5 21 4 12 4 7 5 11 4 10 4 17 5 12 4 12 4 22 5 10 4 5 4 2 5 5 4 8 4-1 5 1h4l4 1 5 3 4-1 4 2 5 24 4 3 4 6 5 4 4 9 4 8 5 6 4 3 4 5 5 2 4 4 4 4 5 7 4 1 4-2 5 1 4-2 4 1h13l5 1h8l5 1h30l4 1h5l4 1h9" fill="none" stroke-width="1.5"/><g fill="#3360a9"><circle cx="80" cy="362" r="2"/><circle cx="123" cy="336" r="2"/><circle cx="166" cy="278" r="2"/><circle cx="210" cy="197" r="2"/><circle cx="253" cy="123" r="2"/><circle cx="257" cy="149" r="2"/><circle cx="262" cy="187" r="2"/><circle cx="266" cy="170" r="2"/><circle cx="270" cy="162" r="2"/><circle cx="275" cy="167" r="2"/><circle cx="279" cy="113" r="2"/><circle cx="283" cy="92" r="2"/><circle cx="292" cy="132" r="2"/><circle cx="296" cy="107" r="2"/><circle cx="301" cy="103" r="2"/><circle cx="305" cy="134" r="2"/><circle cx="314" cy="167" r="2"/><circle cx="318" cy="195" r="2"/><circle cx="322" cy="191" r="2"/><circle cx="327" cy="197" r="2"/><circle cx="331" cy="222" r="2"/><circle cx="335" cy="239" r="2"/><circle cx="340" cy="250" r="2"/><circle cx="344" cy="250" r="2"/><circle cx="348" cy="255" r="2"/><circle cx="353" cy="256" r="2"/><circle cx="357" cy="248" r="2"/><circle cx="361" cy="247" r="2"/><circle cx="366" cy="252" r="2"/><circle cx="370" cy="258" r="2"/><circle cx="374" cy="278" r="2"/><circle cx="379" cy="273" r="2"/><circle cx="383" cy="274" r="2"/><circle cx="387" cy="273" r="2"/><circle cx="392" cy="274" r="2"/><circle cx="396" cy="277" r="2"/><circle cx="400" cy="272" r="2"/><circle cx="405" cy="267" r="2"/><circle cx="409" cy="269" r="2"/><circle cx="413" cy="277" r="2"/><circle cx="418" cy="277" r="2"/><circle cx="422" cy="270" r="2"/><circle cx="426" cy="270" r="2"/><circle cx="431" cy="272" r="2"/><circle cx="435" cy="273" r="2"/><circle cx="439" cy="274" r="2"/><circle cx="444" cy="271" r="2"/><circle cx="448" cy="275" r="2"/><circle cx="452" cy="288" r="2"/><circle cx="457" cy="309" r="2"/><circle cx="461" cy="321" r="2"/><circle cx="465" cy="328" r="2"/><circle cx="470" cy="339" r="2"/><circle cx="474" cy="349" r="2"/><circle cx="478" cy="366" r="2"/><circle cx="483" cy="378" r="2"/><circle cx="487" cy="390" r="2"/><circle cx="491" cy="412" r="2"/><circle cx="496" cy="422" r="2"/><circle cx="500" cy="427" r="2"/><circle cx="504" cy="429" r="2"/><circle cx="509" cy="434" r="2"/><circle cx="513" cy="442" r="2"/><circle cx="517" cy="441" r="2"/><circle cx="522" cy="442" r="2"/><circle cx="526" cy="442" r="2"/><circle cx="530" cy="443" r="2"/><circle cx="535" cy="446" r="2"/><circle cx="539" cy="445" r="2"/><circle cx="543" cy="447" r="2"/><circle cx="548" cy="471" r="2"/><circle cx="552" cy="474" r="2"/><circle cx="556" cy="480" r="2"/><circle cx="561" cy="484" r="2"/><circle cx="565" cy="493" r="2"/><circle cx="569" cy="501" r="2"/><circle cx="574" cy="507" r="2"/><circle cx="578" cy="510" r="2"/><circle cx="582" cy="515" r="2"/><circle cx="587" cy="517" r="2"/><circle cx="591" cy="521" r="2"/><circle cx="595" cy="525" r="2"/><circle cx="600" cy="532" r="2"/><circle cx="604" cy="533" r="2"/><circle cx="608" cy="531" r="2"/><circle cx="613" cy="532" r="2"/><circle cx="617" cy="530" r="2"/><circle cx="621" cy="531" r="2"/><circle cx="626" cy="531" r="2"/><circle cx="630" cy="531" r="2"/><circle cx="634" cy="531" r="2"/><circle cx="639" cy="532" r="2"/><circle cx="643" cy="532" r="2"/><circle cx="647" cy="532" r="2"/><circle cx="652" cy="533" r="2"/><circle cx="656" cy="533" r="2"/><circle cx="660" cy="533" r="2"/><circle cx="665" cy="533" r="2"/><circle cx="669" cy="533" r="2"/><circle cx="673" cy="533" r="2"/><circle cx="678" cy="533" r="2"/><circle cx="682" cy="533" r="2"/><circle cx="686" cy="534" r="2"/><circle cx="691" cy="534" r="2"/><circle cx="695" cy="535" r="2"/><circle cx="699" cy="535" r="2"/><circle cx="704" cy="535" r="2"/></g></g></g></g></g><g class="SourcesFooter" fill="#777"><g class="clickable" fill="#777"><text font-size="12.6" x="15" y="581.6"><tspan x="15" y="581.58">Source: UK Department for Energy and Climate Change (DECC)</tspan></text></g><text font-size="12.6" x="582.4" y="581.6"><tspan x="582.37" y="581.58"><a target="_blank" href="https://ourworldindata.org/fossil-fuels/" fill="#777">OurWorldInData.org/fossil-fuels/</a> • <a class="cclogo" href="http://creativecommons.org/licenses/by-sa/4.0/deed.en_US" target="_blank" fill="#777">CC BY-SA</a></tspan></text></g></g></svg>

<svg xmlns="http://www.w3.org/2000/svg" version="1.1" style="font-family:&#x27;Helvetica Neue&#x27;, Helvetica, Arial, sans-serif;font-size:18px;background-color:white;text-rendering:optimizeLegibility;-webkit-font-smoothing:antialiased" width="850" height="600"><g class="ChartTab"><g class="HeaderView"><g opacity="0.8" transform="translate(778, 15) scale(0.27)"><a xmlns:xlink="http://www.w3.org/1999/xlink" xlink:href="https://ourworldindata.org" target="_blank"><g><rect x="0" y="0" fill="#1B2543" width="211.2" height="130.1"/><rect x="0" y="112.2" fill="#E63912" width="211.2" height="17.9"/><g><rect x="1.2" y="12.3" fill="none" width="210.2" height="99.2"/><path fill="#FFFFFF" d="M37.8,32.2c0,12.7-7.7,19.4-17.1,19.4c-9.7,0-16.6-7.5-16.6-18.7c0-11.7,7.3-19.3,17.1-19.3 C31.3,13.7,37.8,21.3,37.8,32.2z M9.2,32.8c0,7.9,4.3,14.9,11.8,14.9c7.5,0,11.8-6.9,11.8-15.3c0-7.3-3.8-14.9-11.8-14.9 C13.1,17.5,9.2,24.8,9.2,32.8z"/><path fill="#FFFFFF" d="M62.7,43.8c0,2.7,0.1,5.1,0.2,7.2h-4.3l-0.3-4.3h-0.1c-1.3,2.1-4,4.9-8.8,4.9c-4.2,0-9.1-2.3-9.1-11.6 V24.6h4.8v14.6c0,5,1.5,8.4,5.9,8.4c3.2,0,5.5-2.2,6.3-4.4c0.3-0.7,0.4-1.6,0.4-2.5V24.6h4.8V43.8z"/><path fill="#FFFFFF" d="M67.3,32.8c0-3.1-0.1-5.8-0.2-8.2h4.2l0.2,5.2h0.2c1.2-3.5,4.1-5.8,7.3-5.8c0.5,0,0.9,0.1,1.4,0.2v4.5 c-0.5-0.1-1-0.2-1.6-0.2c-3.4,0-5.8,2.6-6.5,6.2c-0.1,0.7-0.2,1.4-0.2,2.2V51h-4.8V32.8z"/><path fill="#FFFFFF" d="M95.4,51l-9.4-36.8h5l4.4,18.6c1.1,4.6,2.1,9.2,2.7,12.7h0.1c0.6-3.7,1.8-8,3-12.8l4.9-18.5h5l4.5,18.7 c1,4.4,2,8.7,2.6,12.6h0.1c0.8-4,1.8-8.1,3-12.7l4.9-18.5h4.9L120.6,51h-5L111,31.9c-1.1-4.7-1.9-8.3-2.4-12h-0.1 c-0.7,3.7-1.5,7.3-2.8,12L100.4,51H95.4z"/><path fill="#FFFFFF" d="M154.9,37.6c0,9.8-6.8,14-13.2,14c-7.2,0-12.7-5.2-12.7-13.6c0-8.8,5.8-14,13.1-14 C149.8,24,154.9,29.5,154.9,37.6z M133.9,37.9c0,5.8,3.3,10.1,8,10.1c4.6,0,8-4.3,8-10.3c0-4.5-2.2-10.1-7.9-10.1 C136.3,27.6,133.9,32.8,133.9,37.9z"/><path fill="#FFFFFF" d="M158.2,32.8c0-3.1-0.1-5.8-0.2-8.2h4.2l0.2,5.2h0.2c1.2-3.5,4.1-5.8,7.3-5.8c0.5,0,0.9,0.1,1.4,0.2v4.5 c-0.5-0.1-1-0.2-1.6-0.2c-3.4,0-5.8,2.6-6.5,6.2c-0.1,0.7-0.2,1.4-0.2,2.2V51h-4.8V32.8z"/><path fill="#FFFFFF" d="M173.5,12.3h4.8V51h-4.8V12.3z"/><path fill="#FFFFFF" d="M206.5,12.3v31.9c0,2.3,0.1,5,0.2,6.8h-4.3l-0.2-4.6H202c-1.5,2.9-4.7,5.2-9,5.2 c-6.4,0-11.3-5.4-11.3-13.4c-0.1-8.8,5.4-14.2,11.9-14.2c4,0,6.8,1.9,8,4h0.1V12.3H206.5z M201.7,35.4c0-0.6-0.1-1.4-0.2-2 c-0.7-3.1-3.3-5.6-6.9-5.6c-5,0-7.9,4.4-7.9,10.2c0,5.3,2.6,9.8,7.8,9.8c3.2,0,6.2-2.1,7.1-5.7c0.2-0.7,0.2-1.3,0.2-2.1V35.4z"/><path fill="#FFFFFF" d="M42.8,64c0.1,1.6-1.1,2.9-3.1,2.9c-1.7,0-2.9-1.3-2.9-2.9c0-1.7,1.3-3,3-3C41.7,61,42.8,62.3,42.8,64z M37.4,97.8V71.4h4.8v26.4H37.4z"/><path fill="#FFFFFF" d="M47.5,78.6c0-2.7-0.1-5-0.2-7.1h4.3l0.3,4.4h0.1c1.3-2.5,4.4-5,8.8-5c3.7,0,9.4,2.2,9.4,11.2v15.8h-4.8 V82.6c0-4.3-1.6-7.8-6.1-7.8c-3.2,0-5.6,2.2-6.5,4.9c-0.2,0.6-0.3,1.4-0.3,2.2v15.9h-4.8V78.6z"/><path fill="#FFFFFF" d="M84,61.6c2.9-0.4,6.3-0.8,10.1-0.8c6.8,0,11.7,1.6,14.9,4.6c3.3,3,5.2,7.3,5.2,13.2c0,6-1.9,10.9-5.3,14.3 c-3.4,3.4-9.1,5.3-16.3,5.3c-3.4,0-6.2-0.2-8.6-0.4V61.6z M88.8,94.1c1.2,0.2,3,0.3,4.8,0.3c10.2,0,15.7-5.7,15.7-15.6 c0.1-8.7-4.9-14.2-14.9-14.2c-2.5,0-4.3,0.2-5.6,0.5V94.1z"/><path fill="#FFFFFF" d="M132.1,97.8l-0.4-3.3h-0.2c-1.5,2.1-4.3,3.9-8.1,3.9c-5.4,0-8.1-3.8-8.1-7.6c0-6.4,5.7-9.9,15.9-9.8v-0.5 c0-2.2-0.6-6.1-6-6.1c-2.5,0-5,0.8-6.9,2l-1.1-3.2c2.2-1.4,5.4-2.3,8.7-2.3c8.1,0,10.1,5.5,10.1,10.8v9.9c0,2.3,0.1,4.5,0.4,6.3 H132.1z M131.4,84.4c-5.3-0.1-11.2,0.8-11.2,5.9c0,3.1,2.1,4.6,4.5,4.6c3.4,0,5.6-2.2,6.4-4.4c0.2-0.5,0.3-1,0.3-1.5V84.4z"/><path fill="#FFFFFF" d="M146.6,63.9v7.6h6.9v3.7h-6.9v14.2c0,3.3,0.9,5.1,3.6,5.1c1.3,0,2.2-0.2,2.8-0.3l0.2,3.6 c-0.9,0.4-2.4,0.7-4.3,0.7c-2.2,0-4-0.7-5.2-2c-1.4-1.4-1.9-3.8-1.9-6.9V75.1h-4.1v-3.7h4.1v-6.3L146.6,63.9z"/><path fill="#FFFFFF" d="M171.4,97.8l-0.4-3.3h-0.2c-1.5,2.1-4.3,3.9-8.1,3.9c-5.4,0-8.1-3.8-8.1-7.6c0-6.4,5.7-9.9,15.9-9.8v-0.5 c0-2.2-0.6-6.1-6-6.1c-2.5,0-5,0.8-6.9,2l-1.1-3.2c2.2-1.4,5.4-2.3,8.7-2.3c8.1,0,10.1,5.5,10.1,10.8v9.9c0,2.3,0.1,4.5,0.4,6.3 H171.4z M170.7,84.4c-5.3-0.1-11.2,0.8-11.2,5.9c0,3.1,2.1,4.6,4.5,4.6c3.4,0,5.6-2.2,6.4-4.4c0.2-0.5,0.3-1,0.3-1.5V84.4z"/></g></g></a></g><a href="https://ourworldindata.org/grapher/employment-in-the-coal-industry-in-the-united-kingdom" target="_blank"><text font-size="25.20" x="15.0" y="35.2" fill="#555"><tspan x="15" y="35.160000000000004">Employment in the coal industry in the United Kingdom</tspan></text></a><text font-size="14.40" x="15.0" y="53.7" fill="#666"><tspan x="15" y="53.72">Total number of individuals employed in the coal industry in the United Kingdom. Figures include those employed as</tspan><tspan x="15" y="69.56">contractors by the coal industry.</tspan></text></g><g class="LineChart"><defs><clipPath id="boundsClip-3"><rect x="69.45400000000001" y="0" width="830" height="928.8"></rect></clipPath></defs><g class="AxisBoxView"><g class="HorizontalAxis"><text x="79.5" y="556.5" fill="#666" text-anchor="middle" font-size="16.2">1873</text><text x="196.5" y="556.5" fill="#666" text-anchor="middle" font-size="16.2">1900</text><text x="283.2" y="556.5" fill="#666" text-anchor="middle" font-size="16.2">1920</text><text x="369.9" y="556.5" fill="#666" text-anchor="middle" font-size="16.2">1940</text><text x="456.5" y="556.5" fill="#666" text-anchor="middle" font-size="16.2">1960</text><text x="543.2" y="556.5" fill="#666" text-anchor="middle" font-size="16.2">1980</text><text x="629.9" y="556.5" fill="#666" text-anchor="middle" font-size="16.2">2000</text><text x="703.6" y="556.5" fill="#666" text-anchor="middle" font-size="16.2">2017</text></g><g class="VerticalAxis"><text x="74.45" y="535.3" fill="#666" dominant-baseline="middle" text-anchor="end" font-size="16.2">0</text><text x="74.45" y="460.9" fill="#666" dominant-baseline="middle" text-anchor="end" font-size="16.2">200,000</text><text x="74.45" y="386.5" fill="#666" dominant-baseline="middle" text-anchor="end" font-size="16.2">400,000</text><text x="74.45" y="312" fill="#666" dominant-baseline="middle" text-anchor="end" font-size="16.2">600,000</text><text x="74.45" y="237.6" fill="#666" dominant-baseline="middle" text-anchor="end" font-size="16.2">800,000</text><text x="74.45" y="163.2" fill="#666" dominant-baseline="middle" text-anchor="end" font-size="16.2">1 million</text></g><g class="AxisGridLines"><line x1="79.45" y1="535.3" x2="703.61" y2="535.3" stroke="#ccc"></line><line x1="79.45" y1="460.9" x2="703.61" y2="460.9" stroke="#ddd" stroke-dasharray="3,2"></line><line x1="79.45" y1="386.5" x2="703.61" y2="386.5" stroke="#ddd" stroke-dasharray="3,2"></line><line x1="79.45" y1="312" x2="703.61" y2="312" stroke="#ddd" stroke-dasharray="3,2"></line><line x1="79.45" y1="237.6" x2="703.61" y2="237.6" stroke="#ddd" stroke-dasharray="3,2"></line><line x1="79.45" y1="163.2" x2="703.61" y2="163.2" stroke="#ddd" stroke-dasharray="3,2"></line></g></g><g clip-path="url(#boundsClip-3)"><g class="HeightedLegend clickable"><g class="legendMark"><rect x="703.61" y="528.35" width="131.39" height="13.5" fill="#fff" opacity="0"></rect><text font-size="13.50" x="708.6" y="539.1" fill="#3360a9"><tspan x="708.61" y="539.15">United Kingdom</tspan></text></g></g><g class="Lines"><rect x="79" y="92" width="624" height="443" fill="rgba(255,255,255,0)" opacity="0"></rect><g class="key-United-Kingdom_0"><path stroke="#3360a9" stroke-linecap="round" d="M80 362L123 336L166 278L210 197L253 123L257 149L262 187L266 170L270 162L275 167L279 113L283 92L292 132L296 107L301 103L305 134L314 167L318 195L322 191L327 197L331 222L335 239L340 250L344 250L348 255L353 256L357 248L361 247L366 252L370 258L374 278L379 273L383 274L387 273L392 274L396 277L400 272L405 267L409 269L413 277L418 277L422 270L426 270L431 272L435 273L439 274L444 271L448 275L452 288L457 309L461 321L465 328L470 339L474 349L478 366L483 378L487 390L491 412L496 422L500 427L504 429L509 434L513 442L517 441L522 442L526 442L530 443L535 446L539 445L543 447L548 471L552 474L556 480L561 484L565 493L569 501L574 507L578 510L582 515L587 517L591 521L595 525L600 532L604 533L608 531L613 532L617 530L621 531L626 531L630 531L634 531L639 532L643 532L647 532L652 533L656 533L660 533L665 533L669 533L673 533L678 533L682 533L686 534L691 534L695 535L699 535L704 535" fill="none" stroke-width="1.5"></path><g fill="#3360a9"><circle cx="80" cy="362" r="2"></circle><circle cx="123" cy="336" r="2"></circle><circle cx="166" cy="278" r="2"></circle><circle cx="210" cy="197" r="2"></circle><circle cx="253" cy="123" r="2"></circle><circle cx="257" cy="149" r="2"></circle><circle cx="262" cy="187" r="2"></circle><circle cx="266" cy="170" r="2"></circle><circle cx="270" cy="162" r="2"></circle><circle cx="275" cy="167" r="2"></circle><circle cx="279" cy="113" r="2"></circle><circle cx="283" cy="92" r="2"></circle><circle cx="292" cy="132" r="2"></circle><circle cx="296" cy="107" r="2"></circle><circle cx="301" cy="103" r="2"></circle><circle cx="305" cy="134" r="2"></circle><circle cx="314" cy="167" r="2"></circle><circle cx="318" cy="195" r="2"></circle><circle cx="322" cy="191" r="2"></circle><circle cx="327" cy="197" r="2"></circle><circle cx="331" cy="222" r="2"></circle><circle cx="335" cy="239" r="2"></circle><circle cx="340" cy="250" r="2"></circle><circle cx="344" cy="250" r="2"></circle><circle cx="348" cy="255" r="2"></circle><circle cx="353" cy="256" r="2"></circle><circle cx="357" cy="248" r="2"></circle><circle cx="361" cy="247" r="2"></circle><circle cx="366" cy="252" r="2"></circle><circle cx="370" cy="258" r="2"></circle><circle cx="374" cy="278" r="2"></circle><circle cx="379" cy="273" r="2"></circle><circle cx="383" cy="274" r="2"></circle><circle cx="387" cy="273" r="2"></circle><circle cx="392" cy="274" r="2"></circle><circle cx="396" cy="277" r="2"></circle><circle cx="400" cy="272" r="2"></circle><circle cx="405" cy="267" r="2"></circle><circle cx="409" cy="269" r="2"></circle><circle cx="413" cy="277" r="2"></circle><circle cx="418" cy="277" r="2"></circle><circle cx="422" cy="270" r="2"></circle><circle cx="426" cy="270" r="2"></circle><circle cx="431" cy="272" r="2"></circle><circle cx="435" cy="273" r="2"></circle><circle cx="439" cy="274" r="2"></circle><circle cx="444" cy="271" r="2"></circle><circle cx="448" cy="275" r="2"></circle><circle cx="452" cy="288" r="2"></circle><circle cx="457" cy="309" r="2"></circle><circle cx="461" cy="321" r="2"></circle><circle cx="465" cy="328" r="2"></circle><circle cx="470" cy="339" r="2"></circle><circle cx="474" cy="349" r="2"></circle><circle cx="478" cy="366" r="2"></circle><circle cx="483" cy="378" r="2"></circle><circle cx="487" cy="390" r="2"></circle><circle cx="491" cy="412" r="2"></circle><circle cx="496" cy="422" r="2"></circle><circle cx="500" cy="427" r="2"></circle><circle cx="504" cy="429" r="2"></circle><circle cx="509" cy="434" r="2"></circle><circle cx="513" cy="442" r="2"></circle><circle cx="517" cy="441" r="2"></circle><circle cx="522" cy="442" r="2"></circle><circle cx="526" cy="442" r="2"></circle><circle cx="530" cy="443" r="2"></circle><circle cx="535" cy="446" r="2"></circle><circle cx="539" cy="445" r="2"></circle><circle cx="543" cy="447" r="2"></circle><circle cx="548" cy="471" r="2"></circle><circle cx="552" cy="474" r="2"></circle><circle cx="556" cy="480" r="2"></circle><circle cx="561" cy="484" r="2"></circle><circle cx="565" cy="493" r="2"></circle><circle cx="569" cy="501" r="2"></circle><circle cx="574" cy="507" r="2"></circle><circle cx="578" cy="510" r="2"></circle><circle cx="582" cy="515" r="2"></circle><circle cx="587" cy="517" r="2"></circle><circle cx="591" cy="521" r="2"></circle><circle cx="595" cy="525" r="2"></circle><circle cx="600" cy="532" r="2"></circle><circle cx="604" cy="533" r="2"></circle><circle cx="608" cy="531" r="2"></circle><circle cx="613" cy="532" r="2"></circle><circle cx="617" cy="530" r="2"></circle><circle cx="621" cy="531" r="2"></circle><circle cx="626" cy="531" r="2"></circle><circle cx="630" cy="531" r="2"></circle><circle cx="634" cy="531" r="2"></circle><circle cx="639" cy="532" r="2"></circle><circle cx="643" cy="532" r="2"></circle><circle cx="647" cy="532" r="2"></circle><circle cx="652" cy="533" r="2"></circle><circle cx="656" cy="533" r="2"></circle><circle cx="660" cy="533" r="2"></circle><circle cx="665" cy="533" r="2"></circle><circle cx="669" cy="533" r="2"></circle><circle cx="673" cy="533" r="2"></circle><circle cx="678" cy="533" r="2"></circle><circle cx="682" cy="533" r="2"></circle><circle cx="686" cy="534" r="2"></circle><circle cx="691" cy="534" r="2"></circle><circle cx="695" cy="535" r="2"></circle><circle cx="699" cy="535" r="2"></circle><circle cx="704" cy="535" r="2"></circle></g></g></g></g></g><g class="SourcesFooter" style="fill:#777"><g class="clickable" style="fill:#777"><text font-size="12.60" x="15.0" y="581.6"><tspan x="15" y="581.58">Source: UK Department for Energy and Climate Change (DECC)</tspan></text></g><text font-size="12.60" x="582.4" y="581.6"><tspan x="582.37" y="581.58"><a target='_blank' style='fill: #777;' href='https://ourworldindata.org/fossil-fuels/'>OurWorldInData.org/fossil-fuels/</a> • <a style="fill: #777;" class="cclogo" href="http://creativecommons.org/licenses/by-sa/4.0/deed.en_US" target="_blank">CC BY-SA</a></tspan></text></g></g></svg>
